icons/earth-line.svg

<svg viewBox="0 0 24 24" fill="currentColor" xmlns="http://www.w3.org/2000/svg">
    <path d="M6.23509 6.45329C4.85101 7.89148 4 9.84636 4 12C4 16.4183 7.58172 20 12 20C13.0808 20 14.1116 19.7857 15.0521 19.3972C15.1671 18.6467 14.9148 17.9266 14.8116 17.6746C14.582 17.115 13.8241 16.1582 12.5589 14.8308C12.2212 14.4758 12.2429 14.2035 12.3636 13.3943L12.3775 13.3029C12.4595 12.7486 12.5971 12.4209 14.4622 12.1248C15.4097 11.9746 15.6589 12.3533 16.0043 12.8777C16.0425 12.9358 16.0807 12.9928 16.1198 13.0499C16.4479 13.5297 16.691 13.6394 17.0582 13.8064C17.2227 13.881 17.428 13.9751 17.7031 14.1314C18.3551 14.504 18.3551 14.9247 18.3551 15.8472V15.9518C18.3551 16.3434 18.3168 16.6872 18.2566 16.9859C19.3478 15.6185 20 13.8854 20 12C20 8.70089 18.003 5.8682 15.1519 4.64482C14.5987 5.01813 13.8398 5.54726 13.575 5.91C13.4396 6.09538 13.2482 7.04166 12.6257 7.11976C12.4626 7.14023 12.2438 7.12589 12.012 7.11097C11.3905 7.07058 10.5402 7.01606 10.268 7.75495C10.0952 8.2232 10.0648 9.49445 10.6239 10.1543C10.7134 10.2597 10.7307 10.4547 10.6699 10.6735C10.59 10.9608 10.4286 11.1356 10.3783 11.1717C10.2819 11.1163 10.0896 10.8931 9.95938 10.7412C9.64554 10.3765 9.25405 9.92233 8.74797 9.78176C8.56395 9.73083 8.36166 9.68867 8.16548 9.64736C7.6164 9.53227 6.99443 9.40134 6.84992 9.09302C6.74442 8.8672 6.74488 8.55621 6.74529 8.22764C6.74529 7.8112 6.74529 7.34029 6.54129 6.88256C6.46246 6.70541 6.35689 6.56446 6.23509 6.45329ZM12 22C6.47715 22 2 17.5228 2 12C2 6.47715 6.47715 2 12 2C17.5228 2 22 6.47715 22 12C22 17.5228 17.5228 22 12 22Z"/>
</svg>

<svg xmlns="http://www.w3.org/2000/svg" viewBox="0 0 24 24">
    <g>
        <path fill="none" d="M0 0h24v24H0z"/>
        <path d="M6.235 6.453a8 8 0 0 0 8.817 12.944c.115-.75-.137-1.47-.24-1.722-.23-.56-.988-1.517-2.253-2.844-.338-.355-.316-.628-.195-1.437l.013-.091c.082-.554.22-.882 2.085-1.178.948-.15 1.197.228 1.542.753l.116.172c.328.48.571.59.938.756.165.075.37.17.645.325.652.373.652.794.652 1.716v.105c0 .391-.038.735-.098 1.034a8.002 8.002 0 0 0-3.105-12.341c-.553.373-1.312.902-1.577 1.265-.135.185-.327 1.132-.95 1.21-.162.02-.381.006-.613-.009-.622-.04-1.472-.095-1.744.644-.173.468-.203 1.74.356 2.4.09.105.107.3.046.519-.08.287-.241.462-.292.498-.096-.056-.288-.279-.419-.43-.313-.365-.705-.82-1.211-.96-.184-.051-.386-.093-.583-.135-.549-.115-1.17-.246-1.315-.554-.106-.226-.105-.537-.105-.865 0-.417 0-.888-.204-1.345a1.276 1.276 0 0 0-.306-.43zM12 22C6.477 22 2 17.523 2 12S6.477 2 12 2s10 4.477 10 10-4.477 10-10 10z"/>
    </g>
</svg>
